X: 308
T: DERMOT
T: Diarmuid
B: O'Neill's 308
M: 3/4
L: 1/8
Z: 1999 by John Chambers <jc@trillian.mit.edu>
N: "Slow with feeling"
K:F
  c3 B A2 | f3 e d2 | c2 (BA) (GF) | A3 G G2 \
| c3 B A2 | f3~g Ha2 | F>G A3 G | F6 ||
|| (f3 ede) | f3 F F2 | (f3 efg) | a3 f d2 \
| c3 B A2 | f3~g Ha2 | F>G A3 G | F6 ||


